**harmony	**harte	**kern	**silbe	**kern	**silbe	**rhyme	**timestamp	**phrase	**leadinstrument
*M4/4	*M4/4	*ICvox	*	*ICvox	*	*	*	*	*
*	*	*VRlead	*	*VRbacking*VRharmonize	*	*	*	*	*
*	*	*Hstimme	*	*Nstimme	*	*	*	*	*
*E:	*E:	*E:	*	*E:	*	*	*E:	*E:	*E:
*	*	*M4/4	*	*M4/4	*	*	*	*	*
*	*	*clefC3	*	*clefG2	*	*	*	*	*
1r;	1r	r;	.	r;	.	.	.	.	r
=1	=1	=1	=1	=1	=1	=1	=1	=1	=1
1N	N	1r	.	1r	.	.	.	.	drums
=2	=2	=2	=2	=2	=2	=2	=2	=2	=2
*>Letter>A	*>Letter>A	*>Letter>A	*>Letter>A	*>Letter>A	*>Letter>A	*>Letter>A	*>Letter>A	*>Letter>A	*>Letter>A
*>Label>Intro	*>Label>Intro	*>Label>Intro	*>Label>Intro	*>Label>Intro	*>Label>Intro	*>Label>Intro	*>Label>Intro	*>Label>Intro	*>Label>Intro
1EM	E:maj	1r	.	1r	.	.	11.58	newline	synthesizer
=3	=3	=3	=3	=3	=3	=3	=3	=3	=3
1AM	A:maj	1r	.	1r	.	.	.	.	synthesizer
=4	=4	=4	=4	=4	=4	=4	=4	=4	=4
1EM	E:maj	1r	.	1r	.	.	.	.	synthesizer
=5	=5	=5	=5	=5	=5	=5	=5	=5	=5
1AM	A:maj	2r	.	1r	.	.	.	.	synthesizer
.	.	4r	.	.	.	.	.	.	.
.	.	8r	.	.	.	.	.	.	.
.	.	8B	Babe,	.	.	.	.	.	.
=6	=6	=6	=6	=6	=6	=6	=6	=6	=6
*>Letter>B	*>Letter>B	*>Letter>B	*>Letter>B	*>Letter>B	*>Letter>B	*>Letter>B	*>Letter>B	*>Letter>B	*>Letter>B
*>Label>Verse	*>Label>Verse	*>Label>Verse	*>Label>Verse	*>Label>Verse	*>Label>Verse	*>Label>Verse	*>Label>Verse	*>Label>Verse	*>Label>Verse
1EM	E:maj	8c#	don't	1r	.	.	21.19	newline	voice
.	.	8G#	be	.	.	.	.	.	.
.	.	8c#	shy	.	.	A	.	.	.
.	.	16B	when	.	.	.	.	.	.
.	.	16G#	you're	.	.	.	.	.	.
.	.	16c#	hol-	.	.	.	.	.	.
.	.	16B	-ding	.	.	.	.	.	.
.	.	16G#	my	.	.	.	.	.	.
.	.	[16B	hand,	.	.	B	.	.	.
.	.	8B]	_	.	.	.	.	.	.
.	.	16B	cuz	.	.	.	.	.	.
.	.	16G#	as	.	.	.	.	.	.
=7	=7	=7	=7	=7	=7	=7	=7	=7	=7
1EM	E:maj	8B	time	1r	.	.	.	.	voice
.	.	8G#	goes	.	.	.	.	.	.
.	.	8B	by,	.	.	A	.	.	.
.	.	16G#	you	.	.	.	.	.	.
.	.	16c#	got	.	.	.	.	.	.
.	.	16r	.	.	.	.	.	.	.
.	.	16G#	to	.	.	.	.	.	.
.	.	16B	un-	.	.	.	.	.	.
.	.	16B	-der-	.	.	.	.	.	.
.	.	8F#	-stand,	.	.	B	.	.	.
.	.	8B	it's	.	.	.	.	.	.
=8	=8	=8	=8	=8	=8	=8	=8	=8	=8
1EM	E:maj	8E	you	2r	.	.	.	.	voice
.	.	8r	.	.	.	.	.	.	.
.	.	4r	.	.	.	.	.	.	.
.	.	2r	.	8r	.	.	.	.	.
.	.	.	.	16e	I-	.	.	.	.
.	.	.	.	16e	-i-	.	.	.	.
.	.	.	.	8e	-it's	.	.	.	.
.	.	.	.	8f#	with	.	.	.	.
=9	=9	=9	=9	=9	=9	=9	=9	=9	=9
1EM	E:maj	2r	.	4e	you	.	.	.	voice
.	.	.	.	4r	.	.	.	.	.
.	.	4r	.	2r	.	.	.	.	.
.	.	16r	.	.	.	.	.	.	.
.	.	16e	Ba-	.	.	.	.	.	.
.	.	16e	-ba-	.	.	.	.	.	.
.	.	16e	-ba-	.	.	.	.	.	.
=10	=10	=10	=10	=10	=10	=10	=10	=10	=10
1EM	E:maj	16f#	-ba-	1r	.	.	30.735	newline	voice
.	.	16B	-by	.	.	C	.	.	.
.	.	16e	in	.	.	.	.	.	.
.	.	16c#	your	.	.	.	.	.	.
.	.	8e	eyes,	.	.	A	.	.	.
.	.	8c#	I	.	.	.	.	.	.
.	.	16e	see	.	.	C	.	.	.
.	.	16c#	it	.	.	.	.	.	.
.	.	8e	so	.	.	.	.	.	.
.	.	16e	clear-	.	.	.	.	.	.
.	.	16c#	-ly,	.	.	c	.	.	.
.	.	16e	that	.	.	.	.	.	.
.	.	16c#	our	.	.	.	.	.	.
=11	=11	=11	=11	=11	=11	=11	=11	=11	=11
1EM	E:maj	16f#	love	1r	.	.	.	.	voice
.	.	16e	is	.	.	.	.	.	.
.	.	8c#	so	.	.	.	.	.	.
.	.	8e	strong,	.	.	D	.	.	.
.	.	16e	and	.	.	.	.	.	.
.	.	16c#	you	.	.	.	.	.	.
.	.	16e	ne-	.	.	.	.	.	.
.	.	16c#	-ver	.	.	.	.	.	.
.	.	16B	go	.	.	.	.	.	.
.	.	[16d#	wrong	.	.	D	.	.	.
.	.	8d#]	_	.	.	.	.	.	.
.	.	8r	.	.	.	.	.	.	.
=12	=12	=12	=12	=12	=12	=12	=12	=12	=12
*	*	*	*	*clefF4	*	*	*	*	*
1EM	E:maj	2r	.	4r	.	.	.	.	voice
.	.	.	.	8r	.	.	.	.	.
.	.	.	.	16C#	Ed-	.	.	.	.
.	.	.	.	16D#	-die!	.	.	.	.
.	.	16r	.	2r	.	.	.	.	.
.	.	16c#	I	.	.	.	.	.	.
.	.	16c#	got	.	.	.	.	.	.
.	.	16e	the	.	.	.	.	.	.
.	.	8f#	best	.	.	.	.	.	.
.	.	8e	for	.	.	.	.	.	.
=13	=13	=13	=13	=13	=13	=13	=13	=13	=13
1EM	E:maj	4e	you	1r	.	.	.	.	voice
.	.	4r	.	.	.	.	.	.	.
.	.	4r	.	.	.	.	.	.	.
.	.	8r	.	.	.	.	.	.	.
.	.	8e	So	.	.	.	.	.	.
=14	=14	=14	=14	=14	=14	=14	=14	=14	=14
1EM	E:maj	16e	when	1r	.	.	40.295	newline	voice
.	.	16c#	you're	.	.	.	.	.	.
.	.	8F#	in	.	.	.	.	.	.
.	.	8c#	doubt,	.	.	.	.	.	.
.	.	16e	and	.	.	.	.	.	.
.	.	16e	n-	.	.	.	.	.	.
.	.	16f#	-nee-	.	.	.	.	.	.
.	.	16e	-ding	.	.	.	.	.	.
.	.	8c#	some-	.	.	.	.	.	.
.	.	8c#	-one,	.	.	.	.	.	.
.	.	16e	ba-	.	.	.	.	.	.
.	.	16e	-by	.	.	.	.	.	.
=15	=15	=15	=15	=15	=15	=15	=15	=15	=15
1EM	E:maj	8f#	call	1r	.	.	.	.	voice
.	.	16c#	my	.	.	.	.	.	.
.	.	[16c#	line,	.	.	E	.	.	.
.	.	8c#]	_	.	.	.	.	.	.
.	.	16e	call	.	.	.	.	.	.
.	.	16e	me	.	.	.	.	.	.
.	.	16f#	a-	.	.	.	.	.	.
.	.	8e	-ny-	.	.	.	.	.	.
.	.	[16c#	-time	.	.	E	.	.	.
.	.	4c#]	_	.	.	.	.	.	.
=16	=16	=16	=16	=16	=16	=16	=16	=16	=16
1EM	E:maj	2r	.	4r	.	.	.	.	voice
.	.	.	.	8r	.	.	.	.	.
.	.	.	.	16C#	Ed-	.	.	.	.
.	.	.	.	16D#	-die	.	.	.	.
.	.	8r	.	2r	.	.	.	.	.
.	.	16c#	I'll	.	.	.	.	.	.
.	.	16e	be	.	.	.	.	.	.
.	.	8f#	there	.	.	.	.	.	.
.	.	8e	for	.	.	.	.	.	.
=17	=17	=17	=17	=17	=17	=17	=17	=17	=17
1EM	E:maj	4f#	you!	1r	.	.	.	.	voice
.	.	4f#	(you,	.	.	.	.	.	.
.	.	4f#	you,	.	.	.	.	.	.
.	.	4f#	you)	.	.	.	.	.	.
=18	=18	=18	=18	=18	=18	=18	=18	=18	=18
*>Letter>C	*>Letter>C	*>Letter>C	*>Letter>C	*>Letter>C	*>Letter>C	*>Letter>C	*>Letter>C	*>Letter>C	*>Letter>C
*>Label>Prechorus	*>Label>Prechorus	*>Label>Prechorus	*>Label>Prechorus	*>Label>Prechorus	*>Label>Prechorus	*>Label>Prechorus	*>Label>Prechorus	*>Label>Prechorus	*>Label>Prechorus
1EM	E:maj	4r	.	1r	.	.	49.84	newline	voice
.	.	16r	.	.	.	.	.	.	.
.	.	16B	I've	.	.	.	.	.	.
.	.	8d#	been	.	.	.	.	.	.
.	.	8f#	sear-	.	.	.	.	.	.
.	.	4B	-ching	.	.	.	.	.	.
.	.	[8c#	high!	.	.	.	.	.	.
=19	=19	=19	=19	=19	=19	=19	=19	=19	=19
1AM	A:maj/5	8c#]	_	1r	.	.	.	.	voice
.	.	4e	(high,	.	.	.	.	.	.
.	.	8g#	high)	.	.	.	.	.	.
.	.	2r	.	.	.	.	.	.	.
=20	=20	=20	=20	=20	=20	=20	=20	=20	=20
1EM	E:maj	4r	.	1r	.	.	.	.	voice
.	.	8r	.	.	.	.	.	.	.
.	.	16B	I've	.	.	.	.	.	.
.	.	16d#	been	.	.	.	.	.	.
.	.	8f#	sear-	.	.	.	.	.	.
.	.	4B	-ching	.	.	.	.	.	.
.	.	[8A	low!	.	.	.	.	.	.
=21	=21	=21	=21	=21	=21	=21	=21	=21	=21
1AM	A:maj	8A]	_	1r	.	.	.	.	voice
.	.	4F#	(low,	.	.	.	.	.	.
.	.	8E	low)	.	.	.	.	.	.
.	.	2r	.	.	.	.	.	.	.
=22	=22	=22	=22	=22	=22	=22	=22	=22	=22
1DM	D:maj	8r	.	1r	.	.	.	.	voice
.	.	8d	Ba-	.	.	.	.	.	.
.	.	16d	-ba-	.	.	.	.	.	.
.	.	16d	-ba-	.	.	.	.	.	.
.	.	8d	-ba	.	.	.	.	.	.
.	.	8r	.	.	.	.	.	.	.
.	.	8d	ba-	.	.	.	.	.	.
.	.	16d	-ba-	.	.	.	.	.	.
.	.	8d	-ba,	.	.	.	.	.	.
.	.	16d	-ba-	.	.	.	.	.	.
=23	=23	=23	=23	=23	=23	=23	=23	=23	=23
*>Letter>D	*>Letter>D	*>Letter>D	*>Letter>D	*>Letter>D	*>Letter>D	*>Letter>D	*>Letter>D	*>Letter>D	*>Letter>D
*>Label>Chorus	*>Label>Chorus	*>Label>Chorus	*>Label>Chorus	*>Label>Chorus	*>Label>Chorus	*>Label>Chorus	*>Label>Chorus	*>Label>Chorus	*>Label>Chorus
.	.	8dq	_	.	.	.	.	.	.
1EM	E:maj	8e	Ba-	1r	.	.	61.765	newline	voice
.	.	8e	-by!	.	.	.	.	.	.
.	.	8dq	_	.	.	.	.	.	.
.	.	8e	(Ba-	.	.	.	.	.	.
.	.	8e	-by,	.	.	.	.	.	.
.	.	8dq	_	.	.	.	.	.	.
.	.	8e	ba-	.	.	.	.	.	.
.	.	8e	-by,	.	.	.	.	.	.
.	.	8dq	_	.	.	.	.	.	.
.	.	8e	ba-	.	.	.	.	.	.
.	.	8e	-by)	.	.	.	.	.	.
=24	=24	=24	=24	=24	=24	=24	=24	=24	=24
1DM	D:maj	4r	.	1r	.	.	.	.	voice
.	.	8d	Don't	.	.	.	.	.	.
.	.	8d	for-	.	.	.	.	.	.
.	.	8d	-get	.	.	.	.	.	.
.	.	8r	.	.	.	.	.	.	.
.	.	4d	my	.	.	.	.	.	.
=25	=25	=25	=25	=25	=25	=25	=25	=25	=25
.	.	8dq	_	.	.	.	.	.	.
1EM	E:maj	8e	num-	1r	.	(F	.	.	voice
.	.	8e	-ber!	.	.	f)	.	.	.
.	.	8dq	_	.	.	.	.	.	.
.	.	8e	(Num-	.	.	.	.	.	.
.	.	8e	-ber,	.	.	.	.	.	.
.	.	8dq	_	.	.	.	.	.	.
.	.	8e	num-	.	.	.	.	.	.
.	.	8e	-ber,	.	.	.	.	.	.
.	.	8dq	_	.	.	.	.	.	.
.	.	8e	num-	.	.	.	.	.	.
.	.	8e	-ber)	.	.	.	.	.	.
=26	=26	=26	=26	=26	=26	=26	=26	=26	=26
*	*	*	*	*clefG2	*	*	*	*	*
1DM	D:maj	1r	.	8r	.	.	.	.	voice
.	.	.	.	8d 8dd	Ba-	.	.	.	.
.	.	.	.	16d 16dd	-ba-	.	.	.	.
.	.	.	.	16d 16dd	-ba-	.	.	.	.
.	.	.	.	8d 8dd	-ba	.	.	.	.
.	.	.	.	8r	.	.	.	.	.
.	.	.	.	8d 8dd	ba-	.	.	.	.
.	.	.	.	16d 16dd	-ba-	.	.	.	.
.	.	.	.	16d 16dd	-ba-	.	.	.	.
.	.	.	.	8d 8dd	-ba!	.	.	.	.
=27	=27	=27	=27	=27	=27	=27	=27	=27	=27
.	.	8dq	_	.	.	.	.	.	.
1EM	E:maj	8e	Ba-	1r	.	.	71.205	newline	voice
.	.	8e	-by!	.	.	.	.	.	.
.	.	8dq	_	.	.	.	.	.	.
.	.	8e	(Ba-	.	.	.	.	.	.
.	.	8e	-by,	.	.	.	.	.	.
.	.	8dq	_	.	.	.	.	.	.
.	.	8e	ba-	.	.	.	.	.	.
.	.	8e	-by,	.	.	.	.	.	.
.	.	8dq	_	.	.	.	.	.	.
.	.	8e	ba-	.	.	.	.	.	.
.	.	8e	-by)	.	.	.	.	.	.
=28	=28	=28	=28	=28	=28	=28	=28	=28	=28
2BM	B:maj	4r	.	4r	.	.	.	.	voice
.	.	8d	Love	8f#	Love	.	.	.	.
.	.	8B	is	8d	is	.	.	.	.
2DM	D:maj	8d	stron-	8f#	stron-	.	.	.	voice
.	.	8B	-ger	8d	-ger	.	.	.	.
.	.	4d	than	4f#	than	.	.	.	.
=29	=29	=29	=29	=29	=29	=29	=29	=29	=29
.	.	8dq	_	8f#q	_	.	.	.	.
1EM	E:maj	8e	thun-	8g#	thun-	(F	.	.	voice
.	.	8e	-der!	8g#	-der	f)	.	.	.
.	.	8dq	_	.	.	.	.	.	.
.	.	8e	(Thun-	4r	.	.	.	.	.
.	.	8e	-der,	.	.	.	.	.	.
.	.	8dq	_	.	.	.	.	.	.
.	.	8e	thun-	2r	.	.	.	.	.
.	.	8e	-der,	.	.	.	.	.	.
.	.	8dq	_	.	.	.	.	.	.
.	.	8e	thun-	.	.	.	.	.	.
.	.	8e	-der)	.	.	.	.	.	.
=30	=30	=30	=30	=30	=30	=30	=30	=30	=30
1DM	D:maj	1r	.	8r	.	.	.	.	voice
.	.	.	.	8d 8dd	Ba-	.	.	.	.
.	.	.	.	16d 16dd	-ba-	.	.	.	.
.	.	.	.	16d 16dd	-ba-	.	.	.	.
.	.	.	.	8d 8dd	-ba	.	.	.	.
.	.	.	.	8r	.	.	.	.	.
.	.	.	.	8d 8dd	ba-	.	.	.	.
.	.	.	.	16d 16dd	-ba-	.	.	.	.
.	.	.	.	16d 16dd	-ba-	.	.	.	.
.	.	.	.	8d 8dd	-ba!	.	.	.	.
=31	=31	=31	=31	=31	=31	=31	=31	=31	=31
.	.	8dq	_	8f#q	_	.	.	.	.
1EM	E:maj	8e	Ba-	8g#	Ba-	.	80.81	newline	voice
.	.	8e	-by!	8g#	-by	.	.	.	.
.	.	8dq	_	.	.	.	.	.	.
.	.	8e	(Ba-	4r	.	.	.	.	.
.	.	8e	-by,	.	.	.	.	.	.
.	.	8dq	_	.	.	.	.	.	.
.	.	8e	ba-	2r	.	.	.	.	.
.	.	8e	-by,	.	.	.	.	.	.
.	.	8dq	_	.	.	.	.	.	.
.	.	8e	ba-	.	.	.	.	.	.
.	.	8e	-by)	.	.	.	.	.	.
=32	=32	=32	=32	=32	=32	=32	=32	=32	=32
1DM	D:maj	4r	.	1r	.	.	.	.	voice
.	.	8d	Don't	.	.	.	.	.	.
.	.	8B	for-	.	.	.	.	.	.
.	.	8d	-get	.	.	.	.	.	.
.	.	8r	.	.	.	.	.	.	.
.	.	8eq	_	.	.	.	.	.	.
.	.	4f#	my	.	.	.	.	.	.
=33	=33	=33	=33	=33	=33	=33	=33	=33	=33
.	.	8dq	_	.	.	.	.	.	.
1EM	E:maj	8e	num-	8~g#	Num-	(F	.	.	voice
.	.	8e	-ber!	8g#	-ber	f)	.	.	.
.	.	8dq	_	.	.	.	.	.	.
.	.	8e	(Num-	4r	.	.	.	.	.
.	.	8e	-ber,	.	.	.	.	.	.
.	.	8dq	_	.	.	.	.	.	.
.	.	8e	num-	2r	.	.	.	.	.
.	.	8e	-ber,	.	.	.	.	.	.
.	.	8dq	_	.	.	.	.	.	.
.	.	8e	num-	.	.	.	.	.	.
.	.	8e	-ber)	.	.	.	.	.	.
=34	=34	=34	=34	=34	=34	=34	=34	=34	=34
2BM	B:maj	4r	.	4r	.	.	.	.	voice
.	.	8d	Love	8f#	Love	.	.	.	.
.	.	8B	will	8d	will	.	.	.	.
2DM	D:maj	4d	see	4f#	see	.	.	.	voice
.	.	8eq	_	8g#q	_	.	.	.	.
.	.	4f#	you	4a	you	G	.	.	.
=35	=35	=35	=35	=35	=35	=35	=35	=35	=35
1EM	E:maj	4.e	through	4.g#	through	G	.	.	voice
.	.	8r	.	8r	.	.	.	.	.
.	.	2r	.	2r	.	.	.	.	.
=36	=36	=36	=36	=36	=36	=36	=36	=36	=36
*>Letter>E	*>Letter>E	*>Letter>E	*>Letter>E	*>Letter>E	*>Letter>E	*>Letter>E	*>Letter>E	*>Letter>E	*>Letter>E
*>Label>Bridge	*>Label>Bridge	*>Label>Bridge	*>Label>Bridge	*>Label>Bridge	*>Label>Bridge	*>Label>Bridge	*>Label>Bridge	*>Label>Bridge	*>Label>Bridge
*	*	*	*	*clefF4	*	*	*	*	*
.	.	8g#q	_	8G#q	_	.	.	.	.
2EM	E:maj	4g#	I've	4G#	I've	.	92.445	newline	voice
.	.	8r	.	8r	.	.	.	.	.
.	.	8e	been	8E	been	.	.	.	.
2DM	D:maj/2	8f#	sear-	8F#	sear-	.	.	.	voice
.	.	4f#	-ching	4F#	-ching	.	.	.	.
.	.	[8e	high	[8E	high	.	.	.	.
=37	=37	=37	=37	=37	=37	=37	=37	=37	=37
1AM	A:maj/5	8e]	_	8E]	_	.	.	.	voice
.	.	8r	.	8r	.	.	.	.	.
.	.	4r	.	4r	.	.	.	.	.
.	.	2r	.	2r	.	.	.	.	.
=38	=38	=38	=38	=38	=38	=38	=38	=38	=38
.	.	8g#q	_	8G#q	_	.	.	.	.
2EM	E:maj	4g#	I've	4G#	I've	.	.	.	voice
.	.	8r	.	8r	.	.	.	.	.
.	.	8e	been	8E	been	.	.	.	.
2DM	D:maj	8f#	sear-	8F#	sear-	.	.	.	voice
.	.	4f#	-ching	4F#	-ching	.	.	.	.
.	.	[8e	low	[8E	low	.	.	.	.
=39	=39	=39	=39	=39	=39	=39	=39	=39	=39
1AM	A:maj	8e]	_	8E]	_	.	.	.	voice
.	.	8r	.	8r	.	.	.	.	.
.	.	4r	.	4r	.	.	.	.	.
.	.	2r	.	2r	.	.	.	.	.
=40	=40	=40	=40	=40	=40	=40	=40	=40	=40
2EM	E:maj	4r	.	1r	.	.	102.26	newline	voice
.	.	8r	.	.	.	.	.	.	.
.	.	16d	Wan-	.	.	.	.	.	.
.	.	16~c#	-na	.	.	.	.	.	.
2DM	D:maj/2	8d	spend	.	.	.	.	.	voice
.	.	8d	my	.	.	.	.	.	.
.	.	8e	_	.	.	.	.	.	.
.	.	[8e	life	.	.	.	.	.	.
=41	=41	=41	=41	=41	=41	=41	=41	=41	=41
1AM	A:maj/5	4e]	_	2r	.	.	.	.	voice
.	.	4r	.	.	.	.	.	.	.
.	.	4r	.	4r	.	.	.	.	.
.	.	8f#	with	8F#	With	.	.	.	.
.	.	[8e [8b	you	8E	you!	G	.	.	.
=42	=42	=42	=42	=42	=42	=42	=42	=42	=42
2EM	E:maj	1e] 1b]	_	1r	.	.	.	.	voice
2AM	A:maj/5	.	.	.	.	.	.	.	.
=43	=43	=43	=43	=43	=43	=43	=43	=43	=43
2EM	E:maj	4r	.	4r	.	.	.	.	voice
.	.	8r	.	8r	.	.	.	.	.
.	.	16B	Ba-	16BB	Ba-	.	.	.	.
.	.	16B	-ba-	16BB	-ba-	.	.	.	.
2DM	D:maj	8B	-ba-	8BB	-ba-	.	.	.	voice
.	.	4e	-ba-	4E	-ba-	.	.	.	.
.	.	16f#	-ba!	16F#	-ba!	.	.	.	.
.	.	[16g#	_	[16G#	_	.	.	.	.
=44	=44	=44	=44	=44	=44	=44	=44	=44	=44
2.EM	E:maj	8g#]	_	8G#]	_	.	111.82	newline	voice
.	.	4r	.	4r	.	.	.	.	.
.	.	16g#	Ba-	16G#	Ba-	.	.	.	.
.	.	16g#	-ba-	16G#	-ba-	.	.	.	.
.	.	8f#	-ba-	8F#	-ba-	.	.	.	.
.	.	4g#	-ba-	4G#	-ba-	.	.	.	.
4DM	D:maj/2	.	.	.	.	.	.	.	voice
.	.	[8f#	-ba	[8F#	-ba	.	.	.	.
=45	=45	=45	=45	=45	=45	=45	=45	=45	=45
1AM	A:maj	8f#]	_	8F#]	_	.	.	.	voice
.	.	4e	ba,	4E	ba,	.	.	.	.
.	.	16B	ba-	16BB	ba-	.	.	.	.
.	.	16B	-ba-	16BB	-ba-	.	.	.	.
.	.	8B	-ba-	8BB	-ba-	.	.	.	.
.	.	4e	-ba-	4E	-ba-	.	.	.	.
.	.	16f#	-ba	16F#	-ba	.	.	.	.
.	.	[16g#	_	[16G#	_	.	.	.	.
=46	=46	=46	=46	=46	=46	=46	=46	=46	=46
2.EM	E:maj	8g#]	_	8G#]	_	.	.	.	voice
.	.	4r	.	4r	.	.	.	.	.
.	.	16g#	Ba-	16G#	Ba-	.	.	.	.
.	.	16g#	-ba-	16G#	-ba-	.	.	.	.
.	.	8f#	-ba-	8F#	-ba-	.	.	.	.
.	.	4g#	-ba-	4G#	-ba-	.	.	.	.
4DM	D:maj/2	.	.	.	.	.	.	.	voice
.	.	[8e	-ba	[8E	-ba	.	.	.	.
=47	=47	=47	=47	=47	=47	=47	=47	=47	=47
1AM	A:maj	4e]	_	4E]	_	.	.	.	voice
.	.	8r	.	8r	.	.	.	.	.
.	.	16B	Ba-	16BB	Ba-	.	.	.	.
.	.	16B	-ba-	16BB	-ba-	.	.	.	.
.	.	8B	-ba-	8BB	-ba-	.	.	.	.
.	.	4e	-ba-	4E	-ba-	.	.	.	.
.	.	16f#	-ba	16F#	-ba	.	.	.	.
.	.	[16g#	_	[16G#	_	.	.	.	.
=48	=48	=48	=48	=48	=48	=48	=48	=48	=48
1EM	E:maj	8g#]	_	8G#]	_	.	121.355	newline	voice
.	.	4r	.	4r	.	.	.	.	.
.	.	16g#	Ba-	16G#	Ba-	.	.	.	.
.	.	16g#	-ba-	16G#	-ba-	.	.	.	.
.	.	8f#	-ba-	8F#	-ba-	.	.	.	.
.	.	4g#	-ba-	4G#	-ba-	.	.	.	.
.	.	[8f#	-ba	[8F#	-ba	.	.	.	.
=49	=49	=49	=49	=49	=49	=49	=49	=49	=49
1AM	A:maj	8f#]	_	8F#]	_	.	.	.	voice
.	.	4e	ba,	4E	ba,	.	.	.	.
.	.	16B	ba-	16BB	ba-	.	.	.	.
.	.	16B	-ba-	16BB	-ba-	.	.	.	.
.	.	8B	-ba-	8BB	-ba-	.	.	.	.
.	.	4e	-ba-	4E	-ba-	.	.	.	.
.	.	16f#	-ba	16F#	-ba	.	.	.	.
.	.	[16g#	_	16G#	_	.	.	.	.
=50	=50	=50	=50	=50	=50	=50	=50	=50	=50
1EM	E:maj	8g#]	_	1r	.	.	.	.	voice
.	.	8r	.	.	.	.	.	.	.
.	.	8g#	Love	.	.	.	.	.	.
.	.	8g#	will	.	.	.	.	.	.
.	.	8f#	see	.	.	.	.	.	.
.	.	4g#	you	.	.	.	.	.	.
.	.	[8e	through	.	.	G	.	.	.
=51	=51	=51	=51	=51	=51	=51	=51	=51	=51
1AM	A:maj	4.e]	_	1r	.	.	.	.	voice
.	.	8r	.	.	.	.	.	.	.
.	.	4r	.	.	.	.	.	.	.
.	.	16r	.	.	.	.	.	.	.
.	.	16f#	Ba-	.	.	.	.	.	.
.	.	16f#	-ba-	.	.	.	.	.	.
.	.	16f#	-ba	.	.	.	.	.	.
=52	=52	=52	=52	=52	=52	=52	=52	=52	=52
*>Letter>B	*>Letter>B	*>Letter>B	*>Letter>B	*>Letter>B	*>Letter>B	*>Letter>B	*>Letter>B	*>Letter>B	*>Letter>B
*>Label>Verse	*>Label>Verse	*>Label>Verse	*>Label>Verse	*>Label>Verse	*>Label>Verse	*>Label>Verse	*>Label>Verse	*>Label>Verse	*>Label>Verse
1EM	E:maj	16f#	ba-	1r	.	.	130.915	newline	voice
.	.	16e	-by	.	.	.	.	.	.
.	.	16c#	in	.	.	.	.	.	.
.	.	16B	your	.	.	.	.	.	.
.	.	8d#	eyes,	.	.	A	.	.	.
.	.	8B	I	.	.	.	.	.	.
.	.	16d#	see	.	.	B	.	.	.
.	.	16B	it	.	.	.	.	.	.
.	.	8d#	so	.	.	.	.	.	.
.	.	16d#	clear-	.	.	.	.	.	.
.	.	16B	-ly,	.	.	b	.	.	.
.	.	16c#	that	.	.	.	.	.	.
.	.	16B	our	.	.	.	.	.	.
=53	=53	=53	=53	=53	=53	=53	=53	=53	=53
1EM	E:maj	16e	love	1r	.	.	.	.	voice
.	.	16c#	is	.	.	.	.	.	.
.	.	8B	so	.	.	.	.	.	.
.	.	8f#	strong,	.	.	C	.	.	.
.	.	16e	and	.	.	.	.	.	.
.	.	16c#	you	.	.	.	.	.	.
.	.	16e	ne-	.	.	.	.	.	.
.	.	16c#	-ver	.	.	.	.	.	.
.	.	8B	go	.	.	.	.	.	.
.	.	4d#	_	.	.	.	.	.	.
=54	=54	=54	=54	=54	=54	=54	=54	=54	=54
1EM	E:maj	2r	.	4r	.	.	.	.	voice
.	.	.	.	8r	.	.	.	.	.
.	.	.	.	16C#	Ed-	.	.	.	.
.	.	.	.	16D#	-die!	.	.	.	.
.	.	16r	.	2r	.	.	.	.	.
.	.	16c#	I	.	.	.	.	.	.
.	.	16c#	got	.	.	.	.	.	.
.	.	16e	the	.	.	.	.	.	.
.	.	8f#	best	.	.	.	.	.	.
.	.	8e	for	.	.	.	.	.	.
=55	=55	=55	=55	=55	=55	=55	=55	=55	=55
1EM	E:maj	4e	you	1r	.	G	.	.	voice
.	.	4r	.	.	.	.	.	.	.
.	.	4r	.	.	.	.	.	.	.
.	.	8r	.	.	.	.	.	.	.
.	.	8e	So	.	.	.	.	.	.
=56	=56	=56	=56	=56	=56	=56	=56	=56	=56
1EM	E:maj	16e	when	1r	.	.	140.465	newline	voice
.	.	16c#	you're	.	.	.	.	.	.
.	.	8F#	in	.	.	.	.	.	.
.	.	8c#	doubt,	.	.	.	.	.	.
.	.	16e	and	.	.	.	.	.	.
.	.	16e	n-	.	.	.	.	.	.
.	.	16f#	-nee-	.	.	.	.	.	.
.	.	16e	-ding	.	.	.	.	.	.
.	.	8c#	some-	.	.	.	.	.	.
.	.	8c#	-one,	.	.	.	.	.	.
.	.	16e	ba-	.	.	.	.	.	.
.	.	16e	-by	.	.	.	.	.	.
=57	=57	=57	=57	=57	=57	=57	=57	=57	=57
1EM	E:maj	8f#	call	1r	.	.	.	.	voice
.	.	16c#	my	.	.	.	.	.	.
.	.	[16c#	line,	.	.	E	.	.	.
.	.	8c#]	_	.	.	.	.	.	.
.	.	16e	call	.	.	.	.	.	.
.	.	16e	me	.	.	.	.	.	.
.	.	16f#	a-	.	.	.	.	.	.
.	.	8e	-ny-	.	.	.	.	.	.
.	.	[16c#	-time	.	.	E	.	.	.
.	.	4c#]	_	.	.	.	.	.	.
=58	=58	=58	=58	=58	=58	=58	=58	=58	=58
1EM	E:maj	2r	.	4r	.	.	.	.	voice
.	.	.	.	8r	.	.	.	.	.
.	.	.	.	16C#	Ed-	.	.	.	.
.	.	.	.	16D#	-die	.	.	.	.
.	.	8r	.	2r	.	.	.	.	.
.	.	16c#	I'll	.	.	.	.	.	.
.	.	16e	be	.	.	.	.	.	.
.	.	8f#	there	.	.	.	.	.	.
.	.	8e	for	.	.	.	.	.	.
=59	=59	=59	=59	=59	=59	=59	=59	=59	=59
1EM	E:maj	4f#	you!	1r	.	.	.	.	voice
.	.	4f#	(you,	.	.	.	.	.	.
.	.	4f#	you,	.	.	.	.	.	.
.	.	4f#	you)	.	.	.	.	.	.
=60	=60	=60	=60	=60	=60	=60	=60	=60	=60
*>Letter>C	*>Letter>C	*>Letter>C	*>Letter>C	*>Letter>C	*>Letter>C	*>Letter>C	*>Letter>C	*>Letter>C	*>Letter>C
*>Label>Prechorus	*>Label>Prechorus	*>Label>Prechorus	*>Label>Prechorus	*>Label>Prechorus	*>Label>Prechorus	*>Label>Prechorus	*>Label>Prechorus	*>Label>Prechorus	*>Label>Prechorus
1EM	E:maj	4r	.	1r	.	.	150.02	newline	voice
.	.	16r	.	.	.	.	.	.	.
.	.	16B	I've	.	.	.	.	.	.
.	.	8d#	been	.	.	.	.	.	.
.	.	8f#	sear-	.	.	.	.	.	.
.	.	4B	-ching	.	.	.	.	.	.
.	.	[8c#	high	.	.	.	.	.	.
=61	=61	=61	=61	=61	=61	=61	=61	=61	=61
1AM	A:maj/5	8c#]	_	1r	.	.	.	.	voice
.	.	8r	.	.	.	.	.	.	.
.	.	4r	.	.	.	.	.	.	.
.	.	2r	.	.	.	.	.	.	.
=62	=62	=62	=62	=62	=62	=62	=62	=62	=62
2EM	E:maj	4r	.	1r	.	.	.	.	voice
.	.	8r	.	.	.	.	.	.	.
.	.	16B	I've	.	.	.	.	.	.
.	.	16d#	been	.	.	.	.	.	.
4.AM	A:maj	8f#	sear-	.	.	.	.	.	voice
.	.	4B	-ching	.	.	.	.	.	.
8DM	D:maj	[8A	low!	.	.	.	.	.	voice
=63	=63	=63	=63	=63	=63	=63	=63	=63	=63
1DM	D:maj	8A]	_	1r	.	.	.	.	voice
.	.	8d	Ba-	.	.	.	.	.	.
.	.	16d	-ba-	.	.	.	.	.	.
.	.	16d	-ba-	.	.	.	.	.	.
.	.	8d	-ba,	.	.	.	.	.	.
.	.	8r	.	.	.	.	.	.	.
.	.	8d	ba-	.	.	.	.	.	.
.	.	16d	-ba-	.	.	.	.	.	.
.	.	16d	-ba-	.	.	.	.	.	.
.	.	8d	-ba,	.	.	.	.	.	.
=64	=64	=64	=64	=64	=64	=64	=64	=64	=64
*>Letter>D	*>Letter>D	*>Letter>D	*>Letter>D	*>Letter>D	*>Letter>D	*>Letter>D	*>Letter>D	*>Letter>D	*>Letter>D
*>Label>Chorus	*>Label>Chorus	*>Label>Chorus	*>Label>Chorus	*>Label>Chorus	*>Label>Chorus	*>Label>Chorus	*>Label>Chorus	*>Label>Chorus	*>Label>Chorus
.	.	8dq	_	.	.	.	.	.	.
1EM	E:maj	8e	Ba-	1r	.	.	159.555	newline	voice
.	.	8e	-by!	.	.	.	.	.	.
.	.	8dq	_	.	.	.	.	.	.
.	.	8e	(Ba-	.	.	.	.	.	.
.	.	8e	-by,	.	.	.	.	.	.
.	.	8dq	_	.	.	.	.	.	.
.	.	8e	ba-	.	.	.	.	.	.
.	.	8e	-by,	.	.	.	.	.	.
.	.	8dq	_	.	.	.	.	.	.
.	.	8e	ba-	.	.	.	.	.	.
.	.	8e	-by)	.	.	.	.	.	.
=65	=65	=65	=65	=65	=65	=65	=65	=65	=65
1DM	D:maj	4r	.	1r	.	.	.	.	voice
.	.	8d	Don't	.	.	.	.	.	.
.	.	8d	for-	.	.	.	.	.	.
.	.	8d	-get	.	.	.	.	.	.
.	.	8r	.	.	.	.	.	.	.
.	.	4d	my	.	.	.	.	.	.
=66	=66	=66	=66	=66	=66	=66	=66	=66	=66
.	.	8dq	_	.	.	.	.	.	.
1EM	E:maj	8e	num-	1r	.	(F	.	.	voice
.	.	8e	-ber!	.	.	f)	.	.	.
.	.	8dq	_	.	.	.	.	.	.
.	.	8e	(Num-	.	.	.	.	.	.
.	.	8e	-ber,	.	.	.	.	.	.
.	.	8dq	_	.	.	.	.	.	.
.	.	8e	num-	.	.	.	.	.	.
.	.	8e	-ber,	.	.	.	.	.	.
.	.	8dq	_	.	.	.	.	.	.
.	.	8e	num-	.	.	.	.	.	.
.	.	8e	-ber)	.	.	.	.	.	.
=67	=67	=67	=67	=67	=67	=67	=67	=67	=67
*	*	*	*	*clefC3	*	*	*	*	*
1DM	D:maj	1r	.	8r	.	.	.	.	voice
.	.	.	.	8d 8dd	Ba-	.	.	.	.
.	.	.	.	16d 16dd	-ba-	.	.	.	.
.	.	.	.	16d 16dd	-ba-	.	.	.	.
.	.	.	.	8d 8dd	-ba	.	.	.	.
.	.	.	.	8r	.	.	.	.	.
.	.	.	.	8d 8dd	ba-	.	.	.	.
.	.	.	.	16d 16dd	-ba-	.	.	.	.
.	.	.	.	16d 16dd	-ba-	.	.	.	.
.	.	.	.	8d 8dd	-ba!	.	.	.	.
=68	=68	=68	=68	=68	=68	=68	=68	=68	=68
.	.	8dq	_	.	.	.	.	.	.
1EM	E:maj	8e	Ba-	1r	.	.	169.1	newline	voice
.	.	8e	-by!	.	.	.	.	.	.
.	.	8dq	_	.	.	.	.	.	.
.	.	8e	(Ba-	.	.	.	.	.	.
.	.	8e	-by,	.	.	.	.	.	.
.	.	8dq	_	.	.	.	.	.	.
.	.	8e	ba-	.	.	.	.	.	.
.	.	8e	-by,	.	.	.	.	.	.
.	.	8dq	_	.	.	.	.	.	.
.	.	8e	ba-	.	.	.	.	.	.
.	.	8e	-by)	.	.	.	.	.	.
=69	=69	=69	=69	=69	=69	=69	=69	=69	=69
2BM	B:maj	4r	.	4r	.	.	.	.	voice
.	.	8d	Love	8f#	Love	.	.	.	.
.	.	8B	is	8d	is	.	.	.	.
2DM	D:maj	8d	stron-	8f#	stron-	.	.	.	voice
.	.	8B	-ger	8d	-ger	.	.	.	.
.	.	4d	than	4f#	than	.	.	.	.
=70	=70	=70	=70	=70	=70	=70	=70	=70	=70
.	.	8dq	_	8f#q	_	.	.	.	.
1EM	E:maj	8e	thun-	8g#	thun-	(F	.	.	voice
.	.	8e	-der!	8g#	-der	f)	.	.	.
.	.	8dq	_	.	.	.	.	.	.
.	.	8e	(Thun-	4r	.	.	.	.	.
.	.	8e	-der,	.	.	.	.	.	.
.	.	8dq	_	.	.	.	.	.	.
.	.	8e	thun-	2r	.	.	.	.	.
.	.	8e	-der,	.	.	.	.	.	.
.	.	8dq	_	.	.	.	.	.	.
.	.	8e	thun-	.	.	.	.	.	.
.	.	8e	-der)	.	.	.	.	.	.
=71	=71	=71	=71	=71	=71	=71	=71	=71	=71
1DM	D:maj	1r	.	8r	.	.	.	.	voice
.	.	.	.	8d 8dd	Ba-	.	.	.	.
.	.	.	.	16d 16dd	-ba-	.	.	.	.
.	.	.	.	16d 16dd	-ba-	.	.	.	.
.	.	.	.	8d 8dd	-ba	.	.	.	.
.	.	.	.	8r	.	.	.	.	.
.	.	.	.	8d 8dd	ba-	.	.	.	.
.	.	.	.	16d 16dd	-ba-	.	.	.	.
.	.	.	.	16d 16dd	-ba-	.	.	.	.
.	.	.	.	8d 8dd	-ba!	.	.	.	.
=72	=72	=72	=72	=72	=72	=72	=72	=72	=72
.	.	8dq	_	8f#q	_	.	.	.	.
1EM	E:maj	8e	Ba-	8g#	Ba-	.	178.62	newline	voice
.	.	8e	-by!	8g#	-by	.	.	.	.
.	.	8dq	_	.	.	.	.	.	.
.	.	8e	(Ba-	4r	.	.	.	.	.
.	.	8e	-by,	.	.	.	.	.	.
.	.	8dq	_	.	.	.	.	.	.
.	.	8e	ba-	2r	.	.	.	.	.
.	.	8e	-by,	.	.	.	.	.	.
.	.	8dq	_	.	.	.	.	.	.
.	.	8e	ba-	.	.	.	.	.	.
.	.	8e	-by)	.	.	.	.	.	.
=73	=73	=73	=73	=73	=73	=73	=73	=73	=73
1DM	D:maj	4r	.	1r	.	.	.	.	voice
.	.	8d	Don't	.	.	.	.	.	.
.	.	8B	for-	.	.	.	.	.	.
.	.	8d	-get	.	.	.	.	.	.
.	.	8r	.	.	.	.	.	.	.
.	.	8eq	_	.	.	.	.	.	.
.	.	4f#	my	.	.	.	.	.	.
=74	=74	=74	=74	=74	=74	=74	=74	=74	=74
.	.	8dq	_	.	.	.	.	.	.
1EM	E:maj	8e	num-	8~g#	Num-	(F	.	.	voice
.	.	8e	-ber!	8g#	-ber	f)	.	.	.
.	.	8dq	_	.	.	.	.	.	.
.	.	8e	(Num-	4r	.	.	.	.	.
.	.	8e	-ber,	.	.	.	.	.	.
.	.	8dq	_	.	.	.	.	.	.
.	.	8e	num-	2r	.	.	.	.	.
.	.	8e	-ber,	.	.	.	.	.	.
.	.	8dq	_	.	.	.	.	.	.
.	.	8e	num-	.	.	.	.	.	.
.	.	8e	-ber)	.	.	.	.	.	.
=75	=75	=75	=75	=75	=75	=75	=75	=75	=75
2BM	B:maj	4r	.	4r	.	.	.	.	voice
.	.	8d	Love	8f#	Love	.	.	.	.
.	.	8B	will	8d	will	.	.	.	.
2DM	D:maj	4d	see	4f#	see	.	.	.	voice
.	.	8eq	_	8g#q	_	.	.	.	.
.	.	4f#	you	4a	you	.	.	.	.
=76	=76	=76	=76	=76	=76	=76	=76	=76	=76
1EM	E:maj	4.e	through	4.g#	through	G	.	.	voice
.	.	8r	.	8r	.	.	.	.	.
.	.	2r	.	2r	.	.	.	.	.
=77	=77	=77	=77	=77	=77	=77	=77	=77	=77
*>Letter>E	*>Letter>E	*>Letter>E	*>Letter>E	*>Letter>E	*>Letter>E	*>Letter>E	*>Letter>E	*>Letter>E	*>Letter>E
*>Label>Bridge	*>Label>Bridge	*>Label>Bridge	*>Label>Bridge	*>Label>Bridge	*>Label>Bridge	*>Label>Bridge	*>Label>Bridge	*>Label>Bridge	*>Label>Bridge
.	.	8g#q	_	8G#q	_	.	.	.	.
2EM	E:maj	4g#	I've	4G#	I've	.	190.445	newline	voice
.	.	8r	.	8r	.	.	.	.	.
.	.	8e	been	8E	been	.	.	.	.
2DM	D:maj/2	8f#	sear-	8F#	sear-	.	.	.	voice
.	.	4f#	-ching	4F#	-ching	.	.	.	.
.	.	[8e	high	[8E	high	.	.	.	.
=78	=78	=78	=78	=78	=78	=78	=78	=78	=78
1AM	A:maj/5	8e]	_	8E]	_	.	.	.	voice
.	.	8r	.	8r	.	.	.	.	.
.	.	4r	.	4r	.	.	.	.	.
.	.	2r	.	2r	.	.	.	.	.
=79	=79	=79	=79	=79	=79	=79	=79	=79	=79
.	.	8g#q	_	8G#q	_	.	.	.	.
2EM	E:maj	4g#	I've	4G#	I've	.	.	.	voice
.	.	8r	.	8r	.	.	.	.	.
.	.	8e	been	8E	been	.	.	.	.
2DM	D:maj	8f#	sear-	8F#	sear-	.	.	.	voice
.	.	4f#	-ching	4F#	-ching	.	.	.	.
.	.	[8e	low	[8E	low	.	.	.	.
=80	=80	=80	=80	=80	=80	=80	=80	=80	=80
1AM	A:maj	8e]	_	8E]	_	.	.	.	voice
.	.	8r	.	8r	.	.	.	.	.
.	.	4r	.	4r	.	.	.	.	.
.	.	2r	.	2r	.	.	.	.	.
=81	=81	=81	=81	=81	=81	=81	=81	=81	=81
2EM	E:maj	4r	.	1r	.	.	200.07	newline	voice
.	.	8r	.	.	.	.	.	.	.
.	.	16d	Wan-	.	.	.	.	.	.
.	.	16~c#	-na	.	.	.	.	.	.
2DM	D:maj/2	8d	spend	.	.	.	.	.	voice
.	.	8d	my	.	.	.	.	.	.
.	.	8e	_	.	.	.	.	.	.
.	.	[8e	life	.	.	.	.	.	.
=82	=82	=82	=82	=82	=82	=82	=82	=82	=82
1AM	A:maj/5	4e]	_	2r	.	.	.	.	voice
.	.	4r	.	.	.	.	.	.	.
.	.	4r	.	4r	.	.	.	.	.
.	.	8f#	with	8F#	With	.	.	.	.
.	.	[8e [8b	you	8E	you!	G	.	.	.
=83	=83	=83	=83	=83	=83	=83	=83	=83	=83
2EM	E:maj	1e] 1b]	_	1r	.	.	.	.	voice
2AM	A:maj/5	.	.	.	.	.	.	.	.
=84	=84	=84	=84	=84	=84	=84	=84	=84	=84
*	*	*	*	*clefF4	*	*	*	*	*
2EM	E:maj	4r	.	4r	.	.	.	.	voice
.	.	8r	.	8r	.	.	.	.	.
.	.	16B	Ba-	16BB	Ba-	.	.	.	.
.	.	16B	-ba-	16BB	-ba-	.	.	.	.
2DM	D:maj	8B	-ba-	8BB	-ba-	.	.	.	voice
.	.	4e	-ba-	4E	-ba-	.	.	.	.
.	.	16f#	-ba!	16F#	-ba!	.	.	.	.
.	.	[16g#	_	[16G#	_	.	.	.	.
=85	=85	=85	=85	=85	=85	=85	=85	=85	=85
2.EM	E:maj	8g#]	_	8G#]	_	.	209.615	newline	voice
.	.	4r	.	4r	.	.	.	.	.
.	.	16g#	Ba-	16G#	Ba-	.	.	.	.
.	.	16g#	-ba-	16G#	-ba-	.	.	.	.
.	.	8f#	-ba-	8F#	-ba-	.	.	.	.
.	.	4g#	-ba-	4G#	-ba-	.	.	.	.
4DM	D:maj/2	.	.	.	.	.	.	.	voice
.	.	[8f#	-ba	[8F#	-ba	.	.	.	.
=86	=86	=86	=86	=86	=86	=86	=86	=86	=86
1AM	A:maj	8f#]	_	8F#]	_	.	.	.	voice
.	.	4e	ba,	4E	ba,	.	.	.	.
.	.	16B	ba-	16BB	ba-	.	.	.	.
.	.	16B	-ba-	16BB	-ba-	.	.	.	.
.	.	8B	-ba-	8BB	-ba-	.	.	.	.
.	.	4e	-ba-	4E	-ba-	.	.	.	.
.	.	16f#	-ba!	16F#	-ba!	.	.	.	.
.	.	[16g#	_	[16G#	_	.	.	.	.
=87	=87	=87	=87	=87	=87	=87	=87	=87	=87
1EM	E:maj	8g#]	_	8G#]	_	.	.	.	voice
.	.	8r	.	8r	.	.	.	.	.
.	.	8g#	Love	4r	.	.	.	.	.
.	.	8g#	will	.	.	.	.	.	.
.	.	8f#	see	2r	.	.	.	.	.
.	.	4g#	you	.	.	.	.	.	.
.	.	[8e	through	.	.	G	.	.	.
=88	=88	=88	=88	=88	=88	=88	=88	=88	=88
*	*	*	*	*clefC3	*	*	*	*	*
1AM	A:maj	4.e]	_	1r	.	.	.	.	voice
.	.	8r	.	.	.	.	.	.	.
.	.	2r	.	.	.	.	.	.	.
=89	=89	=89	=89	=89	=89	=89	=89	=89	=89
*>Letter>F	*>Letter>F	*>Letter>F	*>Letter>F	*>Letter>F	*>Letter>F	*>Letter>F	*>Letter>F	*>Letter>F	*>Letter>F
*>Label>Interlude	*>Label>Interlude	*>Label>Interlude	*>Label>Interlude	*>Label>Interlude	*>Label>Interlude	*>Label>Interlude	*>Label>Interlude	*>Label>Interlude	*>Label>Interlude
*M2/4	*M2/4	*M2/4	*	*M2/4	*	*	*M2/4	*M2/4	*M2/4
2N	N	2r	.	2r	.	.	.	.	scratch
=90	=90	=90	=90	=90	=90	=90	=90	=90	=90
*c#:	*c#:	*c#:	*	*c#:	*	*	*c#:	*c#:	*c#:
*M4/4	*M4/4	*M4/4	*	*M4/4	*	*	*M4/4	*M4/4	*M4/4
1C#m	C#:min	2r	.	1r	.	.	220.345	newline	synthesizer
.	.	4r	.	.	.	.	.	.	.
.	.	8r	.	.	.	.	.	.	.
.	.	16e	Ba-	.	.	.	.	.	.
.	.	16B	-by,	.	.	.	.	.	.
=91	=91	=91	=91	=91	=91	=91	=91	=91	=91
1C#m	C#:min	8f#	call	1r	.	.	222.725	newline	synthesizer
.	.	16B	my	.	.	.	.	.	.
.	.	[16d#	line,	.	.	E	.	.	.
.	.	16d#]	_	.	.	.	.	.	.
.	.	16e	ba-	.	.	.	.	.	.
.	.	16e	-ba-	.	.	.	.	.	.
.	.	16c#	-by	.	.	.	.	.	.
.	.	8f#	call	.	.	.	.	.	.
.	.	16B	my	.	.	.	.	.	.
.	.	[16d#	line!	.	.	E	.	.	.
.	.	4d#]	_	.	.	.	.	.	.
=92	=92	=92	=92	=92	=92	=92	=92	=92	=92
1C#m	C#:min	2r	.	1r	.	.	225.11	newline	synthesizer
.	.	4r	.	.	.	.	.	.	.
.	.	8r	.	.	.	.	.	.	.
.	.	16c#	Call	.	.	.	.	.	.
.	.	16e	me	.	.	.	.	.	.
=93	=93	=93	=93	=93	=93	=93	=93	=93	=93
1C#m	C#:min	16f#	a-	1r	.	.	227.505	newline	synthesizer
.	.	8B	-ny-	.	.	.	.	.	.
.	.	[16B	-time	.	.	E	.	.	.
.	.	8B]	,,	.	.	.	.	.	.
.	.	16e	call	.	.	.	.	.	.
.	.	16e	me	.	.	.	.	.	.
.	.	16f#	a-	.	.	.	.	.	.
.	.	8B	-ny-	.	.	.	.	.	.
.	.	[16B	-time!	.	.	E	.	.	.
.	.	4B]	_	.	.	.	.	.	.
=94	=94	=94	=94	=94	=94	=94	=94	=94	=94
*>Letter>D	*>Letter>D	*>Letter>D	*>Letter>D	*>Letter>D	*>Letter>D	*>Letter>D	*>Letter>D	*>Letter>D	*>Letter>D
*>Label>Chorus	*>Label>Chorus	*>Label>Chorus	*>Label>Chorus	*>Label>Chorus	*>Label>Chorus	*>Label>Chorus	*>Label>Chorus	*>Label>Chorus	*>Label>Chorus
*E:	*E:	*E:	*	*E:	*	*	*E:	*E:	*E:
.	.	8dq 8ddq	_	8f#q	_	.	.	.	.
1EM	E:maj	8e 8ee	Ba-	8g#	Ba-	.	.	.	voice
.	.	8e 8ee	-by!	8g#	-by!	.	.	.	.
.	.	8dq	_	.	.	.	.	.	.
.	.	8e	(Ba-	4r	.	.	.	.	.
.	.	8e	-by,	.	.	.	.	.	.
.	.	8dq	_	.	.	.	.	.	.
.	.	8e	ba-	2r	.	.	.	.	.
.	.	8e	-by,	.	.	.	.	.	.
.	.	8dq	_	.	.	.	.	.	.
.	.	8e	ba-	.	.	.	.	.	.
.	.	8e	-by)	.	.	.	.	.	.
=95	=95	=95	=95	=95	=95	=95	=95	=95	=95
*	*	*	*	*clefG2	*	*	*	*	*
1DM	D:maj	4r	.	4r	.	.	.	.	voice
.	.	8d 8dd	Don't	8f#	Don't	.	.	.	.
.	.	8B 8b	for-	8d	for-	.	.	.	.
.	.	8d 8dd	-get	8f#	-get	.	.	.	.
.	.	8r	.	8r	.	.	.	.	.
.	.	8eq 8eeq	_	.	.	.	.	.	.
.	.	4f# 4ff#	my	4r	.	.	.	.	.
=96	=96	=96	=96	=96	=96	=96	=96	=96	=96
.	.	8dq 8ddq	_	.	.	.	.	.	.
1EM	E:maj	8e 8ee	num-	8~g#	Num-	(F	234.67	newline	voice
.	.	8e 8ee	-ber!	8g#	-ber	f)	.	.	.
.	.	8dq	_	.	.	.	.	.	.
.	.	8e	(Num-	4r	.	.	.	.	.
.	.	8e	-ber,	.	.	.	.	.	.
.	.	8dq	_	.	.	.	.	.	.
.	.	8e	num-	2r	.	.	.	.	.
.	.	8e	-ber,	.	.	.	.	.	.
.	.	8dq	_	.	.	.	.	.	.
.	.	8e	num-	.	.	.	.	.	.
.	.	8e	-ber)	.	.	.	.	.	.
=97	=97	=97	=97	=97	=97	=97	=97	=97	=97
2BM	B:maj	4r	.	4r	.	.	.	.	voice
.	.	8d 8dd	Love	8f#	Love	.	.	.	.
.	.	8B 8b	will	8d	will	.	.	.	.
2DM	D:maj	4d 4dd	see	4f#	see	.	.	.	voice
.	.	8eq 8eeq	_	8g#q	_	.	.	.	.
.	.	4f# 4ff#	you	4a	you	.	.	.	.
=98	=98	=98	=98	=98	=98	=98	=98	=98	=98
1EM	E:maj	4e 4ee	through	4g#	through	G	.	.	voice
.	.	4r	.	4r	.	.	.	.	.
.	.	2r	.	2r	.	.	.	.	.
1r;	1r	r;	.	r;	.	.	.	.	.
*-	*-	*-	*-	*-	*-	*-	*-	*-	*-
!!!BillboardChartDate: 1989/05/27
!!!BillboardPeak: 1
!!!BillboardWeeksOnChart: 21
!!!COC: Milli Vanilli
!!!EMD: 
!!!ENC: Nathaniel Condit-Schultz
!!!EST: Awating manual error checking and editing.
!!!OTL: Baby Don't Forget My Number
!!!RDF**chordsym: original McGill chord annotation + (implied pitch class set, with bass pitch in first position)
!!!RDF**harmony: **recip + pitch class of root + harmonic quality
!!!RDF**leadinstrument: original McGill primary instrumentation annotation
!!!RDF**phrase: newline = linebreak in original McGill transcription
!!!RDF**timestamp: McGill audio timestamp in seconds
!!!RDT: 2017/01/12/
!!!SampleActualRank: 22
!!!SampleID#: 1276
!!!SampleTargetRank: 21
